src/assets/safepal_white.svg

<?xml version="1.0" encoding="UTF-8"?>
<svg width="60px" height="57px" viewBox="0 0 60 57" version="1.1" xmlns="http://www.w3.org/2000/svg" xmlns:xlink="http://www.w3.org/1999/xlink">
    <title>a/vertical/white</title>
    <defs>
        <path d="M42.9949271,43.1667119 C45.4436364,43.1601801 47.4341124,45.139946 47.440708,47.5886553 C47.4471258,50.0373646 45.4673599,52.0277255 43.0187658,52.0342898 L43.0187658,52.0342898 L40.1971589,52.0416602 L40.2105178,56.9937812 L37.9072593,57 L37.870292,43.1804488 Z M26.94824,43.1676657 L26.94824,45.4709242 L26.3724254,45.4709242 C25.4939626,45.4709242 24.7797221,46.1734181 24.7604899,47.0472744 L24.7604899,47.0472744 L24.7601444,47.428694 L26.94824,47.428694 L26.94824,49.7319525 L24.7601444,49.7319525 L24.7601444,56.9871018 L22.4568859,56.9871018 L22.4568859,49.7319525 L21.4204195,49.7319525 L21.4204195,47.428694 L22.4568859,47.428694 L22.4568859,46.6225535 C22.4568859,44.7145341 24.0037543,43.1676657 25.9117737,43.1676657 L25.9117737,43.1676657 L26.94824,43.1676657 Z M32.1881532,47.428694 C34.8276875,47.428694 36.9674146,49.5684212 36.9674146,52.2078403 C36.9674146,52.6256514 36.9137487,53.0309097 36.8130963,53.417051 L36.8130963,53.417051 L30.0270057,53.4172813 C30.4509204,54.1730956 31.2598248,54.6838432 32.1881532,54.6838432 C32.6310698,54.6838432 33.0470383,54.5676438 33.4068073,54.3638054 L33.4068073,54.3638054 L33.4068073,54.3715214 L35.9227717,55.1905601 C35.0469577,56.2857595 33.6994363,56.9871018 32.1881532,56.9871018 C29.5486189,56.9871018 27.4088917,54.8474897 27.4088917,52.2078403 C27.4088917,49.5684212 29.5486189,47.428694 32.1881532,47.428694 Z M4.90559519,43.1676657 C7.08367162,43.1676657 8.75019434,44.2877403 9.64040376,46.1479671 C8.18912056,46.6188683 7.37008182,46.8835127 7.18305723,46.9419003 C6.71158021,46.1981781 6.025094,45.7113844 4.90559519,45.7113844 C3.80694087,45.7113844 3.16306495,46.2808651 3.16306495,47.0401343 C3.16306495,47.8564091 3.6745035,48.2929918 5.68213881,48.9004762 C7.78443803,49.5648511 10.0191746,50.2672298 10.0191746,52.9818503 C10.0191746,55.4685634 8.03054121,56.9871018 5.20847369,56.9871018 C2.50007198,56.9871018 0.719768292,55.6773538 -9.76996262e-15,53.7031157 C1.04441258,53.3685674 1.88095608,53.124422 2.5096305,52.9702189 C3.03661605,53.870102 3.91024201,54.4243811 5.28436606,54.4243811 C6.85634001,54.4243811 7.40566717,53.7601214 7.40566717,53.0197389 C7.40566717,52.0326775 6.51545774,51.6529853 4.54571104,51.0835046 C2.5189587,50.4950221 0.549327161,49.6408587 0.549327161,47.1161418 C0.549327161,44.6103117 2.63273967,43.1676657 4.90559519,43.1676657 Z M60,43.2160341 L60,56.9871018 L57.6967415,56.9871018 L57.6967415,43.9643628 L60,43.2160341 Z M51.9945643,47.428694 C52.0063109,47.428694 52.0189789,47.4297305 52.0317619,47.4297305 C52.0977503,47.4297305 52.1636235,47.4319186 52.2294967,47.4351431 C53.0990919,47.4766018 53.9076508,47.7508047 54.5945977,48.1966004 L54.5945977,48.1966004 L56.7754381,47.4649703 L56.7754381,56.9871018 L54.4945211,56.9871018 L54.4945211,56.2821895 C54.3498765,56.3715559 54.1988979,56.4534367 54.0436583,56.5267955 L54.0436583,56.5267955 C53.810914,56.6342425 53.5716054,56.7267184 53.3259629,56.7990407 L53.3259629,56.7990407 L53.2792068,56.8118238 L53.2792068,56.8118238 L53.1015104,56.8575435 C53.0717983,56.8649139 53.0409347,56.8711327 53.0111075,56.8787334 L53.0111075,56.8787334 L52.8676145,56.9062574 L52.8676145,56.9062574 L52.757058,56.9266412 C52.7101867,56.9340116 52.6635458,56.939194 52.615638,56.9457583 C52.5794768,56.9509406 52.5433157,56.9563533 52.506118,56.9594626 C52.4486517,56.9659118 52.390149,56.970288 52.3327978,56.9744338 C52.3061952,56.9754703 52.2795926,56.9786949 52.2540264,56.9798465 C52.1678845,56.9850288 52.0807062,56.9871018 51.9934127,56.9871018 C50.927004,56.9871018 49.9433974,56.6373519 49.1478519,56.0461055 C48.9640519,55.9057219 48.7865858,55.7516339 48.6152234,55.5803866 C48.4514617,55.4166249 48.3038228,55.2465293 48.1675851,55.0699845 C47.6114633,54.326723 47.2668958,53.41636 47.2222126,52.4275712 C47.2189881,52.3614676 47.2169151,52.2957096 47.2169151,52.2286848 L47.2169151,52.2286848 L47.2169151,52.2042702 C47.2189881,49.5681908 49.356412,47.4308821 51.9945643,47.428694 Z M15.7182424,47.428694 C15.729989,47.428694 15.7426569,47.4297305 15.7555552,47.4297305 C15.8214284,47.4297305 15.8873016,47.4319186 15.9531748,47.4351431 C16.82277,47.4766018 17.6313289,47.7508047 18.3182758,48.1966004 L18.3182758,48.1966004 L20.4991161,47.4649703 L20.4991161,56.9871018 L18.2181992,56.9871018 L18.2181992,56.2821895 C18.0735546,56.3715559 17.922576,56.4534367 17.7673363,56.5267955 L17.7673363,56.5267955 C17.5345921,56.6342425 17.2952835,56.7267184 17.049641,56.7990407 C17.0336333,56.8033017 17.0186622,56.8074476 17.0028848,56.8118238 C16.9443821,56.8277163 16.8847277,56.8424571 16.8251884,56.8575435 C16.7954764,56.8649139 16.7646127,56.8711327 16.7347855,56.8787334 C16.6868778,56.888292 16.6392003,56.8978505 16.5912925,56.9062574 C16.5540949,56.9138581 16.5179337,56.9200769 16.480621,56.9266412 C16.4338648,56.9340116 16.3872238,56.939194 16.339316,56.9457583 C16.3031549,56.9509406 16.2669937,56.9563533 16.2297961,56.9594626 C16.1723298,56.9659118 16.113827,56.970288 16.0564759,56.9744338 C16.0298733,56.9754703 16.0032706,56.9786949 15.9777045,56.9798465 C15.8915626,56.9850288 15.8043843,56.9871018 15.7172059,56.9871018 C14.6506821,56.9871018 13.6670755,56.6373519 12.8716452,56.0461055 C12.68773,55.9057219 12.5102639,55.7516339 12.3389015,55.5803866 C12.1751398,55.4166249 12.0275009,55.2465293 11.8912632,55.0699845 C11.3351414,54.326723 10.9906891,53.41636 10.9460059,52.4275712 C10.9427813,52.3614676 10.9405932,52.2957096 10.9405932,52.2286848 L10.9405932,52.2286848 L10.9405932,52.2042702 C10.9427813,49.5681908 13.0800901,47.4308821 15.7182424,47.428694 Z M51.9391709,49.6167896 C50.5394807,49.6167896 49.4050107,50.7512596 49.4050107,52.1509498 C49.4050107,53.5493732 50.5394807,54.6838432 51.9391709,54.6838432 C53.3378247,54.6838432 54.4721795,53.5493732 54.4721795,52.1509498 C54.4721795,50.7512596 53.3378247,49.6167896 51.9391709,49.6167896 Z M15.662849,49.6167896 C14.263274,49.6167896 13.1286888,50.7512596 13.1286888,52.1509498 C13.1286888,53.5493732 14.263274,54.6838432 15.662849,54.6838432 C17.0615028,54.6838432 18.1958576,53.5493732 18.1958576,52.1509498 C18.1958576,50.7512596 17.0615028,49.6167896 15.662849,49.6167896 Z M32.1881532,49.7319525 C31.2134142,49.7319525 30.3703064,50.2952144 29.9663148,51.1137925 L29.9663148,51.1137925 L34.4099915,51.1137925 C34.006,50.2952144 33.1628922,49.7319525 32.1881532,49.7319525 Z M43.0398406,45.4702333 L43.0010307,45.4700029 L40.179539,45.4774885 L40.1910553,49.7385168 L43.012547,49.7310312 C44.1891666,49.7279218 45.1405276,48.7713786 45.1374333,47.5947589 C45.1341936,46.4310376 44.1987251,45.487738 43.0398406,45.4702333 L43.0398406,45.4702333 Z M46.7308892,22.4320052 L46.7308892,25.167813 C46.7308892,32.7684719 35.7028029,37.1432766 32.3222333,38.3034731 L31.0928578,38.7284298 L31.0928578,33.9998921 L31.6934882,33.7731008 C36.9526255,31.7938318 42.2594724,28.3652117 42.2594724,25.167813 L42.2594724,22.4320052 L46.7308892,22.4320052 Z M30.0287451,-2.13162821e-14 L34.5356033,1.38971403 L34.5356033,6.21418226 L30.0287451,4.81969727 L29.7339676,4.91102718 L29.7339676,15.7658251 L34.5356033,15.7658251 L34.5356033,20.2379235 L29.7339676,20.2379235 L29.7339676,38.662369 L28.4821004,38.1958368 C27.9007242,37.9797802 26.9642518,37.6117343 25.8061,37.0862466 L25.2618692,36.8376452 L25.2618692,1.47099083 L30.0287451,-2.13162821e-14 Z M23.847278,1.92544231 L23.847278,6.72775963 L17.7406128,8.62353676 L17.7406128,15.7658422 L23.847278,15.7658422 L23.847278,36.4510436 L22.4947093,35.7555051 C18.2860364,33.5891461 13.2690256,29.9362906 13.2690256,24.8362991 L13.2690256,22.4320734 L17.7406128,22.4320734 L17.7406128,24.8362991 C17.7406128,25.8915344 18.289785,27.000443 19.3750092,28.1420669 L19.3750092,20.2379405 L13.2690256,20.2379405 L13.2690256,5.19048647 L23.847278,1.92544231 Z M35.8931304,1.81109249 L46.7308892,5.16542186 L46.7308892,20.2379235 L40.3677846,20.2379235 L40.3677846,26.7647744 C40.3677846,26.7647744 38.9450146,28.629881 35.8970494,30.1915202 L35.8970054,29.6673638 C35.8970006,29.6228286 35.8969954,29.575844 35.8969899,29.52647 L35.8960333,22.2795937 C35.8960152,22.1482028 35.8959969,22.0159207 35.8959785,21.8828073 L35.8950287,15.1003945 C35.8950083,14.9560213 35.8949879,14.8117756 35.8949675,14.6677175 L35.8940393,8.14238488 C35.8940218,8.01966811 35.8940044,7.89809769 35.8939872,7.77773355 L35.8931304,1.81109249 L35.8931304,1.81109249 Z M40.3677846,8.01777753 L40.3677846,15.7658251 L42.2594724,15.7658251 L42.2594724,8.6017096 L40.3677846,8.01777753 Z" id="path-1"></path>
    </defs>
    <g id="a/vertical/white" stroke="none" stroke-width="1" fill="none" fill-rule="evenodd">
        <mask id="mask-2" fill="white">
            <use xlink:href="#path-1"></use>
        </mask>
        <use id="蒙版" fill="#FFFFFF" xlink:href="#path-1"></use>
    </g>
</svg>

<svg xmlns="http://www.w3.org/2000/svg" xmlns:xlink="http://www.w3.org/1999/xlink" width="60" height="57" xmlns:v="https://vecta.io/nano"><defs><path d="M42.995 43.167c2.449-.007 4.439 1.973 4.446 4.422s-1.973 4.439-4.422 4.446h0l-2.822.007.013 4.952-2.303.006-.037-13.82zm-16.047.001v2.303h-.576c-.878 0-1.593.702-1.612 1.576h0v.381h2.188v2.303H24.76v7.255h-2.303v-7.255H21.42v-2.303h1.036v-.806c0-1.908 1.547-3.455 3.455-3.455h0 1.036zm5.24 4.261a4.78 4.78 0 0 1 4.779 4.779 4.79 4.79 0 0 1-.154 1.209h0-6.786c.424.756 1.233 1.267 2.161 1.267.443 0 .859-.116 1.219-.32h0v.008l2.516.819a4.77 4.77 0 0 1-3.735 1.797 4.78 4.78 0 0 1-4.779-4.779 4.78 4.78 0 0 1 4.779-4.779zM4.906 43.168c2.178 0 3.845 1.12 4.735 2.98l-2.457.794c-.471-.744-1.158-1.231-2.277-1.231-1.099 0-1.743.569-1.743 1.329 0 .816.511 1.253 2.519 1.86 2.102.664 4.337 1.367 4.337 4.081 0 2.487-1.989 4.005-4.811 4.005C2.5 56.987.72 55.677 0 53.703l2.51-.733c.527.9 1.401 1.454 2.775 1.454 1.572 0 2.121-.664 2.121-1.405 0-.987-.89-1.367-2.86-1.936-2.027-.588-3.996-1.443-3.996-3.967 0-2.506 2.083-3.948 4.356-3.948zM60 43.216v13.771h-2.303V43.964L60 43.216zm-8.005 4.213l.037.001.198.005a4.75 4.75 0 0 1 2.365.761h0l2.181-.732v9.522h-2.281v-.705a4.59 4.59 0 0 1-.451.245h0c-.233.107-.472.2-.718.272h0l-.047.013h0l-.178.046-.09.021h0l-.143.028h0l-.111.02-.141.019-.11.014-.173.015-.079.005-.261.007a4.75 4.75 0 0 1-2.846-.941c-.184-.14-.361-.294-.533-.466a5.28 5.28 0 0 1-.448-.51c-.556-.743-.901-1.654-.945-2.642l-.005-.199h0v-.024a4.78 4.78 0 0 1 4.778-4.776zm-36.276 0l.037.001.198.005a4.75 4.75 0 0 1 2.365.761h0l2.181-.732v9.522h-2.281v-.705a4.59 4.59 0 0 1-.451.245h0c-.233.107-.472.2-.718.272l-.047.013-.178.046-.09.021-.143.028-.111.02-.141.019-.11.014-.173.015-.079.005-.26.007a4.75 4.75 0 0 1-2.846-.941c-.184-.14-.361-.294-.533-.466a5.28 5.28 0 0 1-.448-.51c-.556-.743-.901-1.654-.945-2.642l-.005-.199h0v-.024a4.78 4.78 0 0 1 4.778-4.776zm36.221 2.188c-1.4 0-2.534 1.134-2.534 2.534s1.134 2.533 2.534 2.533 2.533-1.134 2.533-2.533-1.134-2.534-2.533-2.534zm-36.276 0c-1.4 0-2.534 1.134-2.534 2.534s1.135 2.533 2.534 2.533 2.533-1.134 2.533-2.533-1.134-2.534-2.533-2.534zm16.525.115c-.975 0-1.818.563-2.222 1.382h0 4.444c-.404-.819-1.247-1.382-2.222-1.382zM43.04 45.47h-.039l-2.821.007.012 4.261 2.821-.007a2.13 2.13 0 1 0 .027-4.261h0zm3.691-23.038v2.736c0 7.601-11.028 11.975-14.409 13.136l-1.229.425V34l.601-.227c5.259-1.979 10.566-5.408 10.566-8.605v-2.736h4.471zM30.029 0l4.507 1.39v4.824L30.029 4.82l-.295.091v10.855h4.802v4.472h-4.802v18.424l-1.252-.467a41.88 41.88 0 0 1-2.676-1.11l-.544-.249V1.471L30.029 0zm-6.181 1.925v4.802l-6.107 1.896v7.142h6.107v20.685l-1.353-.696c-4.209-2.166-9.226-5.819-9.226-10.919v-2.404h4.472v2.404c0 1.055.549 2.164 1.634 3.306v-7.904h-6.106V5.19l10.578-3.265zm12.046-.114l10.838 3.354v15.073h-6.363v6.527s-1.423 1.865-4.471 3.427v-.524-.141l-.001-7.247v-.397l-.001-6.782v-.433l-.001-6.525v-.365l-.001-5.967h0zm4.475 6.207v7.748h1.892V8.602l-1.892-.584z" id="A"/></defs><use fill="#fff" xlink:href="#A" fill-rule="evenodd"/></svg>
